src/actions/22/view-financial-account-savings.svg

<svg viewBox="0 0 22 22" xmlns="http://www.w3.org/2000/svg">
  <defs id="defs3051">
    <style type="text/css" id="current-color-scheme">
      .ColorScheme-Text {
        color:#363636;
      }
      </style>
  </defs>
    <path
        style="fill:currentColor;fill-opacity:1;stroke:none" 
        d="m11 2c-1.0071809 0-1.9159199 0.3855812-2.6191406 1h-5.3808594v16h16v-16h-5.380859c-0.703221-0.6144188-1.61196-1-2.619141-1zm0 1c1.656854 0 3 1.3431458 3 3s-1.343146 3-3 3c-1.6568542 0-3-1.3431458-3-3s1.3431458-3 3-3zm-7 1h3.5546875c-0.3435907 0.5903897-0.5546875 1.2676826-0.5546875 2 0 1.2019581 0.5416438 2.2667597 1.3808594 3h-2.3808594v1h10v-1h-2.380859c0.839215-0.7332403 1.380859-1.7980419 1.380859-3 0-0.7323174-0.211097-1.4096103-0.554688-2h3.554688v12h-14v-12z"
        class="ColorScheme-Text"
    />
</svg>

<svg xmlns="http://www.w3.org/2000/svg" viewBox="0 0 22 22">
    <path d="M11 2a3.966 3.966 0 0 0-2.62 1H3v16h16V3h-5.38A3.966 3.966 0 0 0 11 2zm0 1a3 3 0 1 1 0 6 3 3 0 0 1 0-6zM4 4h3.555A3.96 3.96 0 0 0 7 6c0 1.202.542 2.267 1.38 3H6v1h10V9h-2.38A3.972 3.972 0 0 0 15 6a3.96 3.96 0 0 0-.555-2H18v12H4V4z" style="fill:currentColor;fill-opacity:1;stroke:none;color:#050505;opacity:.7"/>
</svg>
